assets/icons/24px/outline/medical-24px.svg

<svg width="24" height="24" viewBox="0 0 24 24" fill="none" xmlns="http://www.w3.org/2000/svg">
<path d="M16.6063 3V2C16.5851 2 16.5639 2.00067 16.5428 2.00202L16.6063 3ZM10.0361 3.88159L9.49231 4.72084L10.0361 3.88159ZM7.39368 3L7.45723 2.00202C7.43607 2.00067 7.41488 2 7.39368 2L7.39368 3ZM2 9H1H2ZM12 22L11.4104 22.8077C11.7589 23.0621 12.2313 23.0643 12.5821 22.8131L12 22ZM21 9C21 9.55228 21.4477 10 22 10C22.5523 10 23 9.55228 23 9L21 9ZM18.4466 17.6667C18.8266 17.2659 18.8097 16.633 18.4089 16.253C18.0082 15.873 17.3752 15.8899 16.9952 16.2907L18.4466 17.6667ZM12.0175 5.96931L11.15 5.47183L12.0175 5.96931ZM11.9825 5.96931L12.85 5.47183L11.9825 5.96931ZM12 5.98971L12 6.98971L12 5.98971ZM16.5428 2.00202C15.4342 2.07261 14.3629 2.43158 13.4202 3.04234L14.5077 4.72084C15.1692 4.29226 15.911 4.04631 16.6699 3.99798L16.5428 2.00202ZM13.4202 3.04234C12.4832 3.64944 11.7091 4.49699 11.15 5.47183L12.885 6.46679C13.2991 5.74458 13.8596 5.14071 14.5077 4.72084L13.4202 3.04234ZM12.85 5.47183C12.2909 4.49699 11.5168 3.64944 10.5798 3.04234L9.49231 4.72084C10.1404 5.14071 10.7009 5.74458 11.115 6.46679L12.85 5.47183ZM10.5798 3.04234C9.63713 2.43158 8.56578 2.07261 7.45723 2.00202L7.33013 3.99798C8.08904 4.04631 8.83082 4.29226 9.49231 4.72084L10.5798 3.04234ZM7.39368 2C5.63671 2 3.96881 2.75445 2.75175 4.06881L4.21923 5.42766C5.0752 4.50327 6.21894 4 7.39368 4L7.39368 2ZM2.75175 4.06881C1.49717 5.42368 1 7.24379 1 9H3C3 7.59013 3.40078 6.31154 4.21923 5.42766L2.75175 4.06881ZM1 9C1 10.6995 1.73683 12.4163 2.71676 13.9695C3.70686 15.5388 5.01043 17.0429 6.28765 18.3393C7.56864 19.6395 8.84594 20.7537 9.80112 21.5417C10.2794 21.9363 10.6788 22.2506 10.9599 22.4672C11.1004 22.5756 11.2115 22.6596 11.2882 22.717C11.3266 22.7457 11.3563 22.7678 11.3769 22.783C11.3872 22.7906 11.3952 22.7965 11.4008 22.8006C11.4036 22.8027 11.4058 22.8043 11.4074 22.8055C11.4082 22.8061 11.4088 22.8066 11.4093 22.8069C11.4096 22.8071 11.4099 22.8073 11.41 22.8074C11.4102 22.8076 11.4104 22.8077 12 22C12.5896 21.1923 12.5897 21.1924 12.5898 21.1924C12.5898 21.1924 12.5898 21.1925 12.5897 21.1924C12.5896 21.1923 12.5894 21.1921 12.589 21.1918C12.5882 21.1912 12.5867 21.1902 12.5847 21.1887C12.5807 21.1858 12.5744 21.1811 12.5657 21.1747C12.5485 21.162 12.5221 21.1424 12.4872 21.1162C12.4174 21.064 12.3136 20.9855 12.1808 20.8831C11.9149 20.6783 11.5331 20.3777 11.0739 19.9989C10.1541 19.2401 8.93136 18.173 7.71235 16.9357C6.48957 15.6945 5.29314 14.3049 4.40824 12.9023C3.51317 11.4836 3 10.1505 3 9H1ZM23 9C23 7.2438 22.5028 5.42369 21.2483 4.06881L19.7808 5.42766C20.5992 6.31154 21 7.59013 21 9L23 9ZM21.2483 4.06881C20.0312 2.75445 18.3633 2 16.6063 2V4C17.7811 4 18.9248 4.50327 19.7808 5.42766L21.2483 4.06881ZM12 22C12.5821 22.8131 12.5822 22.813 12.5823 22.813C12.5824 22.8129 12.5825 22.8128 12.5826 22.8128C12.5828 22.8126 12.583 22.8125 12.5833 22.8122C12.5839 22.8118 12.5847 22.8113 12.5856 22.8106C12.5875 22.8093 12.5901 22.8074 12.5934 22.805C12.6 22.8002 12.6095 22.7934 12.6217 22.7845C12.6461 22.7668 12.6814 22.741 12.7269 22.7075C12.8178 22.6405 12.9494 22.5426 13.1152 22.4165C13.4467 22.1643 13.9158 21.7989 14.4713 21.3422C15.5799 20.4307 17.0434 19.1468 18.4466 17.6667L16.9952 16.2907C15.667 17.6917 14.27 18.9184 13.2011 19.7973C12.6677 20.2358 12.2187 20.5855 11.9043 20.8247C11.7472 20.9442 11.6239 21.036 11.5407 21.0973C11.4991 21.1279 11.4675 21.151 11.4468 21.166C11.4364 21.1735 11.4288 21.1791 11.4239 21.1826C11.4215 21.1843 11.4198 21.1855 11.4188 21.1863C11.4183 21.1866 11.4179 21.1869 11.4178 21.187C11.4177 21.187 11.4177 21.187 11.4177 21.187C11.4177 21.187 11.4178 21.187 11.4178 21.187C11.4178 21.1869 11.4179 21.1869 12 22ZM11.15 5.47183C11.1295 5.50768 11.1684 5.43454 11.222 5.36642C11.2786 5.29438 11.534 4.98971 12 4.98971L12 6.98971C12.4718 6.98971 12.732 6.68164 12.794 6.6028C12.8319 6.55458 12.8575 6.51296 12.8664 6.49836C12.8721 6.48894 12.8767 6.48107 12.8794 6.47651C12.8819 6.4721 12.8843 6.46792 12.885 6.46679L11.15 5.47183ZM11.115 6.46679C11.1157 6.46792 11.1181 6.4721 11.1206 6.47651C11.1233 6.48107 11.1279 6.48894 11.1336 6.49836C11.1425 6.51296 11.1681 6.55458 11.206 6.6028C11.268 6.68164 11.5282 6.98971 12 6.98971L12 4.98971C12.466 4.98971 12.7214 5.29438 12.778 5.36642C12.8316 5.43454 12.8705 5.50768 12.85 5.47183L11.115 6.46679Z" fill="white"/>
<path d="M7.10557 13.5528C6.85858 14.0468 7.05881 14.6474 7.55279 14.8944C8.04676 15.1414 8.64744 14.9412 8.89443 14.4472L7.10557 13.5528ZM10 10L10.8 9.4C10.5921 9.12274 10.2554 8.97292 9.91019 9.00404C9.56502 9.03517 9.26057 9.2428 9.10557 9.55279L10 10ZM13 14L12.2 14.6C12.3739 14.8319 12.6399 14.9769 12.9291 14.9975C13.2183 15.018 13.5021 14.9121 13.7071 14.7071L13 14ZM15 12L15.7071 11.2929C15.3166 10.9024 14.6834 10.9024 14.2929 11.2929L15 12ZM17 14L16.2929 14.7071C16.6448 15.059 17.2019 15.0986 17.6 14.8L17 14ZM22 13.5C22.5523 13.5 23 13.0523 23 12.5C23 11.9477 22.5523 11.5 22 11.5V13.5ZM18.4667 12.9L17.8667 12.1L18.4667 12.9ZM19.0171 12.5513L19.3333 13.5L19.0171 12.5513ZM8.89443 14.4472L10.8944 10.4472L9.10557 9.55279L7.10557 13.5528L8.89443 14.4472ZM9.2 10.6L12.2 14.6L13.8 13.4L10.8 9.4L9.2 10.6ZM13.7071 14.7071L15.7071 12.7071L14.2929 11.2929L12.2929 13.2929L13.7071 14.7071ZM14.2929 12.7071L16.2929 14.7071L17.7071 13.2929L15.7071 11.2929L14.2929 12.7071ZM17.6 14.8L19.0667 13.7L17.8667 12.1L16.4 13.2L17.6 14.8ZM19.6667 13.5H22V11.5H19.6667V13.5ZM19.0667 13.7C19.2084 13.5937 19.2788 13.5415 19.3318 13.5067C19.3735 13.4793 19.3654 13.4893 19.3333 13.5L18.7009 11.6026C18.3575 11.7171 18.0793 11.9405 17.8667 12.1L19.0667 13.7ZM19.6667 11.5C19.4008 11.5 19.0443 11.4882 18.7009 11.6026L19.3333 13.5C19.3012 13.5107 19.2888 13.5076 19.3386 13.5044C19.4018 13.5005 19.4895 13.5 19.6667 13.5V11.5Z" fill="white"/>
</svg>

<svg width="24" height="24" fill="none" xmlns="http://www.w3.org/2000/svg"><path d="M16.606 3V2c-.02 0-.042 0-.063.002l.063.998zm-6.57.882l-.544.839.544-.84zM7.394 3l.063-.998A.998.998 0 0 0 7.394 2v1zM2 9H1h1zm10 13l-.59.808a1 1 0 0 0 1.172.005L12 22zm9-13a1 1 0 1 0 2 0h-2zm-2.553 8.667a1 1 0 1 0-1.452-1.376l1.452 1.376zm-6.43-11.698l-.867-.497.867.497zm-.034 0l.867-.497-.867.497zm.017.02v1-1zm4.543-3.987c-1.109.07-2.18.43-3.123 1.04l1.088 1.679a4.498 4.498 0 0 1 2.162-.723l-.127-1.996zm-3.123 1.04a7.09 7.09 0 0 0-2.27 2.43l1.735.995a5.09 5.09 0 0 1 1.623-1.746L13.42 3.042zm-.57 2.43a7.09 7.09 0 0 0-2.27-2.43L9.492 4.721a5.09 5.09 0 0 1 1.623 1.746l1.735-.995zm-2.27-2.43a6.498 6.498 0 0 0-3.123-1.04L7.33 3.998c.759.048 1.5.294 2.162.723l1.088-1.679zM7.394 2c-1.757 0-3.425.754-4.642 2.069l1.467 1.359C5.075 4.503 6.22 4 7.394 4V2zM2.752 4.069C1.497 5.424 1 7.244 1 9h2c0-1.41.4-2.688 1.22-3.572l-1.468-1.36zM1 9c0 1.7.737 3.416 1.717 4.97.99 1.569 2.293 3.073 3.57 4.37a46.983 46.983 0 0 0 5.114 4.46l.006.005.002.002h.001L12 22l.59-.808h-.001l-.004-.003-.02-.014a42.885 42.885 0 0 1-1.492-1.176 44.978 44.978 0 0 1-3.36-3.063c-1.223-1.242-2.42-2.631-3.305-4.034C3.513 11.484 3 10.15 3 9H1zm22 0c0-1.756-.497-3.576-1.752-4.931l-1.467 1.359C20.599 6.312 21 7.59 21 9h2zm-1.752-4.931C20.031 2.754 18.363 2 16.606 2v2c1.175 0 2.319.503 3.175 1.428l1.467-1.36zM12 22l.582.813h.001l.003-.002.007-.006.029-.02a19.263 19.263 0 0 0 .493-.369c.332-.252.8-.617 1.356-1.074a44.652 44.652 0 0 0 3.976-3.675l-1.452-1.376a42.664 42.664 0 0 1-3.794 3.506 44.321 44.321 0 0 1-1.754 1.369l-.023.017-.005.003-.001.001L12 22zm-.85-16.528c-.02.036.018-.037.072-.106A.99.99 0 0 1 12 4.99v2a1.01 1.01 0 0 0 .866-.492l.013-.021a.506.506 0 0 1 .006-.01l-1.735-.995zm-.035.995l.006.01.013.021A1.01 1.01 0 0 0 12 6.99v-2a.99.99 0 0 1 .778.377c.054.069.092.142.072.106l-1.735.995z" fill="#fff"/><path d="M7.106 13.553a1 1 0 1 0 1.788.894l-1.788-.894zM10 10l.8-.6a1 1 0 0 0-1.694.153L10 10zm3 4l-.8.6a1 1 0 0 0 1.507.107L13 14zm2-2l.707-.707a1 1 0 0 0-1.414 0L15 12zm2 2l-.707.707a1 1 0 0 0 1.307.093L17 14zm5-.5a1 1 0 1 0 0-2v2zm-3.533-.6l-.6-.8.6.8zm.55-.349l.316.949-.316-.949zM8.894 14.447l2-4-1.788-.894-2 4 1.788.894zM9.2 10.6l3 4 1.6-1.2-3-4-1.6 1.2zm4.507 4.107l2-2-1.414-1.414-2 2 1.414 1.414zm.586-2l2 2 1.414-1.414-2-2-1.414 1.414zM17.6 14.8l1.467-1.1-1.2-1.6-1.467 1.1 1.2 1.6zm2.067-1.3H22v-2h-2.333v2zm-.6.2c.141-.106.212-.159.265-.193.041-.028.033-.018.001-.007l-.632-1.897c-.343.114-.622.338-.834.497l1.2 1.6zm.6-2.2c-.266 0-.623-.012-.966.103l.632 1.897c-.032.01-.044.008.006.004.063-.003.15-.004.328-.004v-2z" fill="#fff"/></svg>
